X:97
T:Fas et Nefas
S:CB19
C:Carmina Burana 19
R:Carmina
Z:Transcrit et/ou corrigé par B@D - 2005-04-09
Z:Pour toute observation mailto:-@-
M:6/8
L:1/8
%%staves [1 2 3]
K:C
V:1
g2f (ed)g | (ge)f g3 | f2e d2c | (B2c) d3 | d2d d2(a/g/) |
w:Fas et ne-_fas am-_bu-lant pas-su fe-re pa-_ri pro-di-gus non_ 
e2f g3 | a2g f2e | (d2c) d3 | g2e d2c |
w:re-di-mit vi-ti-um a-va-_ri vir-tus tem-pe-
d2(e/f/) g3 | a2f g2(e/c/) | d3 e3 | e2d c2(d/e/) |
w:ran-ti-_a qua-dam sin-gu-_la-ri de-bet me-di-_
g3 z3 | f2e d2c | d2e (d2f) | e2d c2d | (e2f) g3 |]
w:um ad u-trum-que vi-ti-um_ cau-te con-tem-pla-_ri
V:2
d2c (BA)G | A2B c3 | B2A G2F | (G2A)G3 | B2A G2G | 
A2B c3 | d2c B2A | (G2A) G3 | G2A B2c |
(BA)B c3 | A2B (cB)(A/G/) | A3 B3 | c2B (c/B/A)c |
d3 z3 | B2A G2A | G2A (B2c) | A2G F2G | (ABc) d3 |
V:3
G2B d2d | e2d c3 | d2e f2d | e3 d3 | B2c d2d |
e2d c3 | d2e f2d | e3 d3 | e2f g2g |
(fe)d c3 | d2d c2e | d3 B3 | A2B (cB)A |
G3 z3 | B2c d2(e/d/) | (cB)(A/G/) (G2F) | A2B c2B | A3 G3 |]
W:Fas et nefas ambulant passu fere pari
W: prodigus non redimit vitium avari
W: virtus temperantia quadam singulari
W: debet medium
W:ad utrumque vitium
W:caute contemplari
W:
W: Si Iegisse memoras ethicam catonis
W: in qua scriptum legitur ambula cum bonis
W:cum ad dandi gloriam animum disponis
W:inter cetera
W:hoc primum considera quis sit dignus donis
W:
W:Dare non ut convenit non est a virtute
W:bonum est secundum quid et non absolute
W:digne dare poteris et mereri tute
W:famam muneris
W:si me prius noveris
W:intus et in cute
W:
W:Vultu Iicet hylari verbo licet blando
W:sis equalis omnibus unum tamen mando
W:si vis recte gloriam promereri dando
W:primum videas
W:granum inter paleas cui des et quando
W: 
W:
W:Si prudenter triticum paleis emundas
W:famam emis munere sed caVeto dum das
W:largitatis oleum maie non effundas
W:in te glorior
W:quia codro codrior
W:omnibus habundas




%%header "$P0	 $IR 	$P1"
%%footer $D - Éditions Galouvielle - 2009 - À usage librement privé dans le cadre familial

